;FLAVOR:Marlin
;TIME:5119
;Filament used: 3.70692m
;Layer height: 0.2
;MINX:79.857
;MINY:94.698
;MINZ:0.2
;MAXX:139.797
;MAXY:125.302
;MAXZ:48
;Generated with Cura_SteamEngine 5.0.0
M140 S60
M105
M190 S60
M104 S220
M105
M109 S220
M82 ;absolute extrusion mode
; Ender 3 Custom Start G-code
G92 E0 ; Reset Extruder
G28 ; Home all axes
G1 Z2.0 F3000 ; Move Z Axis up little to prevent scratching of Heat Bed
G1 X0.1 Y20 Z0.3 F5000.0 ; Move to start position
G1 X0.1 Y200.0 Z0.3 F1500.0 E15 ; Draw the first line
G1 X0.4 Y200.0 Z0.3 F5000.0 ; Move to side a little
G1 X0.4 Y20 Z0.3 F1500.0 E30 ; Draw the second line
G92 E0 ; Reset Extruder
G1 Z2.0 F3000 ; Move Z Axis up little to prevent scratching of Heat Bed
G1 X5 Y20 Z0.3 F5000.0 ; Move over to prevent blob squish
G92 E0
G92 E0
G1 F3000 E-0.8
;LAYER_COUNT:240
;LAYER:0
M107
M204 S2000
M205 X10 Y10
;MESH:4???????????????.stl
G0 F9000 X111.69 Y113.705 Z0.2
;TYPE:WALL-INNER
G1 F3000 E0
G1 F2903.2 X111.267 Y113.688 E0.01746
G1 F3600 X111.028 Y113.684 E0.02541
G1 X110.763 Y113.591 E0.03475
G1 X110.542 Y113.445 E0.04356
G1 X110.3 Y113.169 E0.05577
G1 X110.117 Y112.859 E0.06774
G1 X109.915 Y113.145 E0.07939
G1 X109.751 Y113.355 E0.08825
G1 X109.548 Y113.523 E0.09701
G1 X109.313 Y113.639 E0.10573
G1 X109.056 Y113.68 E0.11439
G1 X108.772 Y113.646 E0.1239
G1 X108.447 Y113.489 E0.13591
G1 X108.145 Y113.173 E0.15044
G1 X107.807 Y113.575 E0.16791
G1 X107.457 Y113.792 E0.18161
G1 X107.121 Y113.92 E0.19357
G1 X106.769 Y113.959 E0.20535
G1 X106.557 Y113.945 E0.21241
G1 X106.211 Y113.859 E0.22427
G1 X105.746 Y113.589 E0.24216
G1 X105.458 Y113.273 E0.25638
G1 X105.276 Y112.922 E0.26953
G1 X105.208 Y112.696 E0.27738
G1 X104.875 Y112.97 E0.29172
G1 X104.462 Y113.195 E0.30736
G1 X104.205 Y113.301 E0.31661
G1 X103.761 Y113.407 E0.33179
G1 X103.37 Y113.459 E0.34491
G1 X102.872 Y113.484 E0.36149
G1 X102.148 Y113.474 E0.38558
G1 X101.883 Y113.492 E0.39441
G1 X101.447 Y113.504 E0.40892
G1 X101.274 Y113.484 E0.41471
G1 X101.018 Y113.357 E0.42422
G1 X100.844 Y113.234 E0.4313
G1 X100.643 Y112.918 E0.44376
G1 X100.565 Y112.669 E0.45244
G1 X100.522 Y112.422 E0.46078
G1 X100.518 Y112.112 E0.47109
G1 X100.523 Y111.943 E0.47671
G1 F2857.1 X100.419 Y111.463 E0.49729
G1 X100.203 Y111.911 E0.51814
G1 F3600 X100.087 Y112.208 E0.52874
G1 X99.934 Y112.518 E0.54024
G1 X99.691 Y112.844 E0.55376
G1 X99.31 Y113.191 E0.5709
G1 X98.855 Y113.448 E0.58828
G1 X98.354 Y113.6 E0.6057
G1 X97.77 Y113.656 E0.62521
G1 X97.4 Y113.645 E0.63752
G1 X97.036 Y113.597 E0.64973
G1 X96.684 Y113.503 E0.66185
G1 X96.225 Y113.281 E0.67881
G1 X96.05 Y113.145 E0.68618
G1 X95.841 Y112.907 E0.69672
G1 X95.722 Y112.703 E0.70457
G1 X95.614 Y112.335 E0.71733
G1 X95.613 Y112.036 E0.72727
G1 X95.665 Y111.792 E0.73557
G1 X95.746 Y111.612 E0.74213
G1 X95.912 Y111.395 E0.75122
G1 X96.112 Y111.24 E0.75964
G1 X96.499 Y111.108 E0.77324
G1 F3573.2 X96.803 Y111.093 E0.78344
G1 F3520.8 X97.122 Y111.137 E0.79439
G1 F3348.8 X97.378 Y111.238 E0.80423
G1 F3221.5 X97.647 Y111.409 E0.81608
G1 F3228.7 X97.82 Y111.536 E0.82403
G1 X97.962 Y111.428 E0.83065
G1 X97.992 Y111.255 E0.83716
G1 X97.87 Y111.034 E0.84652
G1 F3221.5 X97.618 Y110.854 E0.85803
G1 F3318 X97.294 Y110.757 E0.87024
G1 F3461.5 X97.023 Y110.698 E0.87983
G1 F3546.8 X96.715 Y110.551 E0.89135
G1 F3600 X96.523 Y110.402 E0.89944
G1 X96.374 Y110.163 E0.9088
G1 X96.303 Y109.967 E0.91574
G1 X96.296 Y109.606 E0.92775
G1 X96.377 Y109.283 E0.93882
G1 X96.552 Y108.963 E0.95095
G1 X96.683 Y108.814 E0.95755
G1 X96.361 Y108.766 E0.96838
G1 X96.114 Y108.615 E0.97801
G1 X95.869 Y108.392 E0.98903
G1 X95.695 Y108.088 E1.00068
G1 F3564.4 X95.651 Y108.004 E1.00386
G1 X95.452 Y108.28 E1.01529
G1 F3600 X95.183 Y108.467 E1.02619
G1 X94.825 Y108.561 E1.0385
G1 X94.208 Y108.61 E1.05909
G1 X93.83 Y108.598 E1.07167
G1 X93.826 Y111.535 E1.16935
G1 X93.849 Y112.203 E1.19158
G1 X93.79 Y112.639 E1.20622
G1 X93.697 Y112.923 E1.21615
G1 X93.535 Y113.171 E1.22601
G1 X93.165 Y113.42 E1.24084
G1 X92.9 Y113.495 E1.25
G1 X92.604 Y113.505 E1.25985
G1 X92.242 Y113.408 E1.27232
G1 X92.01 Y113.27 E1.28129
G1 X91.821 Y113.075 E1.29033
G1 X91.702 Y112.762 E1.30146
G1 X91.658 Y112.48 E1.31096
G1 X91.693 Y112.057 E1.32507
G1 X91.697 Y111.922 E1.32957
G1 X91.683 Y109.206 E1.4199
G1 X91.714 Y108.613 E1.43965
G1 X91.55 Y108.573 E1.44527
G1 X91.018 Y108.638 E1.46309
G1 X90.649 Y108.62 E1.47538
G1 X90.355 Y108.526 E1.48565
G1 X90.126 Y108.35 E1.49525
G1 F3582.1 X89.948 Y108.148 E1.50425
G1 F3555.6 X89.922 Y108.083 E1.50661
G1 F3582.1 X89.819 Y108.382 E1.51718
G1 F3600 X89.626 Y108.672 E1.52877
G1 X89.36 Y108.871 E1.53982
G1 X89.079 Y108.972 E1.54975
G1 X88.805 Y108.994 E1.55889
G1 X88.301 Y108.852 E1.57631
G1 X87.93 Y108.645 E1.59044
G1 X87.674 Y108.511 E1.60005
G1 X87.504 Y108.485 E1.60577
G1 X87.244 Y108.532 E1.61455
G1 X87.009 Y108.686 E1.6239
G1 X86.855 Y108.9 E1.63267
G1 X86.73 Y109.274 E1.64578
G1 X86.686 Y109.523 E1.65419
G1 X86.666 Y109.881 E1.66612
G1 X86.67 Y110.138 E1.67467
G1 X86.687 Y110.397 E1.6833
G1 X86.764 Y110.806 E1.69714
G1 X86.864 Y111.05 E1.70591
G1 X87.027 Y111.269 E1.71499
G1 X87.311 Y111.415 E1.72562
G1 X87.579 Y111.454 E1.73462
G1 X87.851 Y111.414 E1.74377
G1 X88.038 Y111.238 E1.75231
G1 X88.243 Y111.093 E1.76066
G1 X88.495 Y110.978 E1.76987
G1 X88.858 Y110.948 E1.78199
G1 X89.096 Y110.979 E1.78997
G1 X89.378 Y111.082 E1.79996
G1 X89.673 Y111.303 E1.81222
G1 X89.833 Y111.516 E1.82108
G1 X89.964 Y111.93 E1.83552
G1 X89.922 Y112.211 E1.84497
G1 X89.837 Y112.46 E1.85372
G1 X89.662 Y112.755 E1.86513
G1 X89.315 Y113.12 E1.88188
G1 X88.874 Y113.396 E1.89918
G1 X88.394 Y113.566 E1.91612
G1 X87.832 Y113.648 E1.93501
G1 X87.497 Y113.654 E1.94615
G1 X87.421 Y113.651 E1.94868
G1 X86.922 Y113.592 E1.96539
G1 X86.49 Y113.461 E1.98041
G1 X86.223 Y113.359 E1.98992
G1 X85.846 Y113.141 E2.0044
G1 X85.416 Y112.781 E2.02305
G1 X85.061 Y112.346 E2.04173
G1 X84.79 Y111.837 E2.06091
G1 X84.732 Y111.686 E2.06629
G1 X84.733 Y114.941 E2.17455
G1 X84.8 Y115.296 E2.18656
G1 X84.939 Y115.554 E2.19631
G1 X85.146 Y115.785 E2.20663
G1 X85.38 Y115.937 E2.21591
G1 X85.62 Y116.012 E2.22427
G1 X85.891 Y116.054 E2.23339
G1 X87.889 Y116.177 E2.29997
G1 X88.731 Y116.227 E2.32803
G1 X90.471 Y116.333 E2.38601
G1 X109.509 Y117.487 E3.02038
G1 X110.12 Y117.499 E3.0407
G1 X110.79 Y117.48 E3.06299
G1 X111.372 Y117.436 E3.08241
G1 X111.903 Y117.379 E3.10017
G1 X112.607 Y117.268 E3.12387
G1 X113.264 Y117.131 E3.1462
G1 X113.89 Y116.972 E3.16768
G1 X114.478 Y116.795 E3.1881
G1 X115.126 Y116.569 E3.21093
G1 X115.82 Y116.284 E3.23588
G1 X116.496 Y115.963 E3.26077
G1 X117.034 Y115.676 E3.28105
G1 X117.628 Y115.325 E3.304
G1 X118.162 Y114.974 E3.32525
G1 X118.667 Y114.61 E3.34596
G1 X119.18 Y114.203 E3.36774
G1 X119.71 Y113.739 E3.39117
G1 X119.767 Y113.684 E3.3938
G1 X118.224 Y113.675 E3.44512
G1 X117.82 Y113.702 E3.45859
G1 X117.424 Y113.667 E3.47181
G1 X117.136 Y113.556 E3.48208
G1 X116.968 Y113.431 E3.48904
G1 X116.775 Y113.192 E3.49926
G1 X116.659 Y112.915 E3.50925
G1 F3388.2 X116.609 Y112.663 E3.51833
G1 F3031.6 X116.558 Y112.41 E3.52852
G1 F2647.1 X116.522 Y112.28 E3.53462
G1 F2470 X116.662 Y111.866 E3.55581
G1 X116.721 Y111.729 E3.56304
G1 F2796.1 X116.945 Y111.506 E3.57657
G1 F3396.2 X116.984 Y111.477 E3.57829
G1 F3573.2 X117.31 Y111.031 E3.5968
G1 F3600 X118 Y110.074 E3.63604
G1 X117.376 Y109.982 E3.65702
G1 X117.139 Y109.881 E3.66559
G1 X116.973 Y109.763 E3.67236
G1 X116.809 Y109.57 E3.68079
G1 X116.593 Y110.044 E3.69811
G1 X116.412 Y110.581 E3.71696
G1 F3573.2 X116.236 Y111.085 E3.73485
G1 F2891.6 X116.193 Y111.476 E3.75114
G1 F2465.8 X116.009 Y111.979 E3.77715
G1 F2671.6 X115.853 Y112.295 E3.79294
G1 F3200 X115.713 Y112.545 E3.80366
G1 F3600 X115.474 Y113.213 E3.82726
G1 X115.063 Y114.294 E3.86572
G1 X114.852 Y114.803 E3.88405
G1 X114.698 Y115.111 E3.8955
G1 X114.421 Y115.515 E3.91179
G1 X114.061 Y115.834 E3.92779
G1 X113.561 Y116.079 E3.94631
G1 X113.227 Y116.177 E3.95789
G1 X112.757 Y116.214 E3.97357
G1 X112.514 Y116.176 E3.98175
G1 X112.213 Y116.048 E3.99263
G1 X111.963 Y115.812 E4.00406
G1 X111.75 Y115.411 E4.01917
G1 X111.702 Y115.198 E4.02643
G1 X111.693 Y114.944 E4.03488
G1 X111.759 Y114.673 E4.04416
G1 F3478.3 X111.882 Y114.423 E4.05375
G1 F2823.5 X111.979 Y114.22 E4.06329
G1 F2432.4 X112.223 Y114.079 E4.07716
G1 F2903.2 X112.661 Y114.049 E4.09527
G1 F3600 X112.891 Y113.929 E4.1039
G1 X113.035 Y113.705 E4.11275
G1 X113.196 Y113.28 E4.12787
G1 X113.423 Y112.776 E4.14626
G1 X113.41 Y112.604 E4.15199
G1 X113.204 Y112.14 E4.16888
G1 X112.563 Y110.419 E4.22996
G1 X112.258 Y109.673 E4.25677
G1 X112.164 Y109.351 E4.26792
G1 X112.157 Y109.319 E4.26901
G1 X112.03 Y109.579 E4.27864
G1 X111.797 Y109.987 E4.29426
G1 X111.444 Y110.567 E4.31685
G1 X111.397 Y110.733 E4.32258
G1 X111.55 Y111.007 E4.33302
G1 X112.143 Y112.025 E4.37221
G1 X112.271 Y112.411 E4.38573
G1 X112.287 Y112.663 E4.39413
G1 X112.255 Y112.951 E4.40377
G1 X112.1 Y113.265 E4.41542
G1 F2903.2 X111.941 Y113.56 E4.42924
G1 F2432.4 X111.69 Y113.705 E4.44351
G1 F3000 E3.64351
G0 F9000 X112.156 Y114.272
G0 X111.839 Y114.582
G0 X111.735 Y115.093
G0 X111.941 Y115.708
G0 X112.24 Y116.008
G0 X112.65 Y116.16
G0 X113.173 Y116.138
G0 X113.975 Y115.835
G0 X114.475 Y115.372
G0 X115.868 Y112.593
G0 X116.239 Y112.192
G0 X116.97 Y113.651
G0 X119.913 Y113.622
G1 F3000 E4.44351
G0 F9000 X120.535 Y113.284
;TYPE:WALL-OUTER
G1 F2120.8 X120.697 Y113.128 E4.4562
G0 F9000 X121.068 Y112.378
G0 X120.745 Y111.574
G0 X120.004 Y111.327
G0 X120.976 Y109.323
G0 X120.992 Y108.913
G0 X120.87 Y108.265
;TYPE:WALL-INNER
G1 F3178.8 X120.98 Y108.547 E4.4676
G1 F3461.5 X121.05 Y108.912 E4.48046
G1 F3600 X121.039 Y109.223 E4.49081
G1 X120.991 Y109.439 E4.49817
G1 X120.835 Y109.801 E4.51128
G1 X120.776 Y109.907 E4.51532
G1 X119.851 Y111.233 E4.56909
G1 X119.668 Y111.484 E4.57942
G1 X119.972 Y111.506 E4.58956
G1 X120.394 Y111.586 E4.60384
G1 X120.682 Y111.722 E4.61444
G1 X120.938 Y111.957 E4.626
G1 X121.075 Y112.204 E4.63539
G1 X121.091 Y112.277 E4.63788
G1 X121.326 Y111.982 E4.65042
G1 X121.711 Y111.463 E4.67191
G1 X121.836 Y111.289 E4.67904
G1 X122.166 Y110.782 E4.69916
G1 X122.431 Y110.338 E4.71636
G1 X122.512 Y110.019 E4.7273
G1 X122.502 Y109.924 E4.73048
G1 X122.421 Y109.645 E4.74014
G1 X122.141 Y109.175 E4.75834
G1 X121.867 Y108.757 E4.77496
G1 F3582.1 X121.593 Y108.377 E4.79062
G1 F3356.6 X121.419 Y108.182 E4.79995
G1 F3103.4 X121.245 Y107.976 E4.81035
G1 F2975.2 X121.024 Y107.717 E4.82405
G1 F3157.9 X120.847 Y107.446 E4.83632
G1 F3520.8 X120.607 Y107.164 E4.84892
G1 F3600 X120.414 Y106.957 E4.85833
G1 X120.048 Y106.579 E4.87583
G1 X119.503 Y106.072 E4.90059
G1 X118.983 Y105.637 E4.92314
G1 X118.379 Y105.18 E4.94833
G1 X117.849 Y104.817 E4.96969
G1 X117.283 Y104.468 E4.99181
G1 X116.786 Y104.188 E5.01078
G1 X116.242 Y103.911 E5.03109
G1 X115.561 Y103.606 E5.05591
G1 X114.978 Y103.377 E5.07674
G1 X114.363 Y103.166 E5.09836
G1 X113.739 Y102.986 E5.11996
G1 X113.057 Y102.823 E5.14329
G1 X112.469 Y102.708 E5.16321
G1 X111.884 Y102.619 E5.1829
G1 X111.216 Y102.548 E5.20524
G1 X110.553 Y102.509 E5.22733
G1 X109.924 Y102.502 E5.24825
G1 X109.349 Y102.52 E5.26738
G1 X85.746 Y103.956 E6.05387
G1 X85.405 Y104.046 E6.0656
G1 X85.152 Y104.194 E6.07535
G1 X84.95 Y104.41 E6.08519
G1 X84.824 Y104.639 E6.09388
G1 X84.763 Y104.892 E6.10254
G1 X84.728 Y105.14 E6.11087
G1 X84.73 Y108.254 E6.21444
G1 X85.035 Y107.628 E6.2376
G1 X85.382 Y107.183 E6.25637
G1 X85.81 Y106.814 E6.27517
G1 X86.294 Y106.538 E6.2937
G1 X86.622 Y106.412 E6.30538
G1 X86.936 Y106.332 E6.31616
G1 X87.276 Y106.286 E6.32757
G1 X87.584 Y106.273 E6.33783
G1 X87.96 Y106.289 E6.35034
G1 X88.496 Y106.391 E6.36849
G1 X88.96 Y106.577 E6.38512
G1 X89.399 Y106.877 E6.4028
G1 X89.612 Y107.1 E6.41306
G1 F3555.6 X89.785 Y107.291 E6.42174
G1 F3503.6 X89.804 Y107.332 E6.42328
G1 F3555.6 X89.891 Y107.068 E6.43264
G1 F3600 X90.051 Y106.79 E6.44331
G1 X90.314 Y106.569 E6.45474
G1 X90.577 Y106.458 E6.46423
G1 X90.873 Y106.413 E6.47419
G1 X91.43 Y106.45 E6.49276
G1 X91.983 Y106.446 E6.51115
G1 X94.161 Y106.451 E6.58359
G1 X94.644 Y106.441 E6.59966
G1 X95.005 Y106.482 E6.61174
G1 X95.246 Y106.57 E6.62028
G1 X95.448 Y106.711 E6.62847
G1 X95.599 Y106.907 E6.6367
G1 X95.718 Y107.219 E6.6478
G1 X95.888 Y106.959 E6.65814
G1 X96.178 Y106.711 E6.67083
G1 X96.566 Y106.502 E6.68549
G1 X97.192 Y106.317 E6.7072
G1 X97.574 Y106.275 E6.71998
G1 X97.982 Y106.276 E6.73355
G1 X98.534 Y106.351 E6.75208
G1 X98.999 Y106.504 E6.76836
G1 X99.425 Y106.772 E6.7851
G1 X99.648 Y106.997 E6.79563
G1 X99.839 Y107.252 E6.80623
G1 F3538.1 X99.971 Y107.521 E6.81637
G1 F3372.4 X100.048 Y107.792 E6.82637
G1 F3295.2 X100.081 Y108.111 E6.83803
G1 X100.066 Y108.584 E6.85522
G1 F3103.4 X100.003 Y109.014 E6.87199
G1 F2727.3 X99.917 Y109.305 E6.88531
G1 F2526.3 X99.811 Y109.47 E6.89461
G1 X100.076 Y109.886 E6.91799
G1 X100.259 Y110.404 E6.94402
G1 F2408 X100.365 Y110.71 E6.96013
G1 F2253.5 X100.398 Y110.826 E6.96653
G1 F2356.8 X100.44 Y110.424 E6.98707
G1 F2526.3 X100.442 Y109.458 E7.03285
G1 F2727.3 X100.485 Y109.065 E7.05021
G1 F3090.1 X100.505 Y108.69 E7.06476
G1 F3265.3 X100.51 Y108.438 E7.074
G1 F3333.3 X100.515 Y108.186 E7.08306
G1 F3318 X100.486 Y107.744 E7.09904
G1 F3372.4 X100.501 Y107.408 E7.11098
G1 F3538.1 X100.527 Y107.192 E7.11835
G1 F3600 X100.674 Y106.897 E7.12931
G1 X100.822 Y106.727 E7.13681
G1 X101.128 Y106.549 E7.14858
G1 X101.342 Y106.479 E7.15607
G1 X101.66 Y106.438 E7.16673
G1 X102.12 Y106.446 E7.18204
G1 X102.182 Y106.448 E7.1841
G1 X102.784 Y106.447 E7.20412
G1 X103.195 Y106.46 E7.2178
G1 X103.575 Y106.494 E7.23049
G1 X103.973 Y106.559 E7.2439
G1 X104.283 Y106.641 E7.25457
G1 X104.575 Y106.752 E7.26496
G1 X105.003 Y107.009 E7.28156
G1 X105.438 Y107.426 E7.3016
G1 X105.638 Y107.697 E7.3128
G1 X105.835 Y108.042 E7.32602
G1 X105.958 Y108.361 E7.33739
G1 X106.064 Y108.658 E7.34788
G1 X106.137 Y108.977 E7.35876
G1 X106.192 Y109.373 E7.37206
G1 X106.218 Y109.821 E7.38699
G1 X106.211 Y110.238 E7.40086
G1 X106.17 Y110.7 E7.41628
G1 X106.135 Y110.903 E7.42313
G1 X106.558 Y110.783 E7.43776
G1 X106.89 Y110.771 E7.44881
G1 X107.384 Y110.894 E7.46574
G1 X107.587 Y110.997 E7.47331
G1 X107.875 Y111.212 E7.48527
G1 X108.142 Y111.551 E7.49962
G1 X108.269 Y111.85 E7.51042
G1 X108.748 Y111.029 E7.54204
G1 X108.942 Y110.759 E7.5531
G1 X108.782 Y110.518 E7.56272
G1 X108.555 Y110.109 E7.57827
G1 X108.382 Y109.816 E7.58959
G1 X108.161 Y109.356 E7.60657
G1 X108.075 Y108.88 E7.62265
G1 X108.111 Y108.602 E7.63198
G1 X108.224 Y108.355 E7.64101
G1 X108.48 Y108.1 E7.65303
G1 X108.707 Y107.972 E7.6617
G1 X108.952 Y107.898 E7.67021
G1 X109.346 Y107.909 E7.68332
G1 X109.597 Y108.003 E7.69223
G1 X109.855 Y108.178 E7.7026
G1 X110.168 Y108.566 E7.71918
G1 X110.423 Y108.27 E7.73218
G1 X110.754 Y108.012 E7.74614
G1 X111.012 Y107.917 E7.75528
G1 X111.337 Y107.889 E7.76613
G1 X111.554 Y107.949 E7.77362
G1 X111.84 Y108.11 E7.78453
G1 X112.061 Y108.366 E7.79578
G1 F3512.2 X112.172 Y108.454 E7.80061
G1 X112.351 Y108.212 E7.81087
G1 F3600 X112.545 Y108.037 E7.81956
G1 X112.772 Y107.94 E7.82777
G1 X113.09 Y107.883 E7.83852
G1 X113.52 Y107.962 E7.85306
G1 X113.747 Y108.064 E7.86134
G1 X114.001 Y108.26 E7.87201
G1 X114.208 Y108.582 E7.88474
G1 X114.333 Y108.957 E7.89789
G1 X114.421 Y109.266 E7.90857
G1 X114.537 Y109.565 E7.91924
G1 X114.706 Y109.05 E7.93727
G1 X114.83 Y108.767 E7.94754
G1 X114.991 Y108.453 E7.95928
G1 X115.189 Y108.205 E7.96984
G1 X115.371 Y108.052 E7.97774
G1 X115.714 Y107.898 E7.99025
G1 X116.059 Y107.911 E8.00173
G1 X116.254 Y107.968 E8.00849
G1 X116.515 Y108.154 E8.01915
G1 X116.707 Y108.361 E8.02854
G1 X116.765 Y108.462 E8.03241
G1 X116.898 Y108.248 E8.04079
G1 X117.15 Y108.055 E8.05135
G1 X117.387 Y107.956 E8.05989
G1 X117.738 Y107.892 E8.07176
G1 X118.197 Y107.884 E8.08703
G1 X120.021 Y107.884 E8.1477
G1 X120.376 Y107.954 E8.15973
G1 F3221.5 X120.669 Y108.057 E8.17127
G1 F2975.2 X120.87 Y108.265 E8.18291
G1 F3000 E7.38291
G0 F9000 X120.282 Y107.971
G0 X117.541 Y107.964
G0 X116.608 Y108.302
G0 X116.209 Y108
G0 X115.713 Y107.943
G0 X115.301 Y108.159
G0 X114.371 Y109.286
G0 X114.104 Y108.477
G0 X113.817 Y108.162
